modules/base/images/undeleted_normal.svg

<?xml version="1.0" encoding="utf-8"?><svg xmlns="http://www.w3.org/2000/svg" viewBox="0 0 96 96" enable-background="new 0 0 96 96"><g fill="#A9AAAA"><path d="M92.5 6.4l-6.5-6.4-13.5 13.6-10.2-.8-4.4-4.8h-18.5l-4.2 4.8-11.7 1c-3.3 0-5.9 1.3-5.9 2.9v6.1c0 1.6 2.6 1.2 5.9 1.2h38.6l-8.5 8.5h-34.6l4 30.5-22.8 22.8 6.4 6.4 17.9-17.9 42-42 8.5-8.5 5.2-5.2 12.3-12.2zM25.3 80.7l.9 6.5c0 2.2 1.9 4 4.1 4h37.2c2.3 0 4.1-1.8 4.1-4l7.2-54.8h-5.1l-48.4 48.3z"/></g></svg>

<?xml version="1.0" encoding="utf-8"?>
<!-- Generator: Adobe Illustrator 17.1.0, SVG Export Plug-In . SVG Version: 6.00 Build 0)  -->
<!DOCTYPE svg PUBLIC "-//W3C//DTD SVG 1.1//EN" "http://www.w3.org/Graphics/SVG/1.1/DTD/svg11.dtd">
<svg version="1.1" id="Layer_1" xmlns="http://www.w3.org/2000/svg" xmlns:xlink="http://www.w3.org/1999/xlink" x="0px" y="0px"
	 viewBox="0 0 96 96" enable-background="new 0 0 96 96" xml:space="preserve">
<g>
	<path fill="#A9AAAA" d="M92.5,6.4L86,0L72.5,13.6l-10.2-0.8L57.9,8H39.4l-4.2,4.8l-11.7,1c-3.3,0-5.9,1.3-5.9,2.9v6.1
		c0,1.6,2.6,1.2,5.9,1.2h38.6l-8.5,8.5H19L23,63L0.2,85.8l6.4,6.4l17.9-17.9l0,0l42-42l0,0l8.5-8.5l0,0l5.2-5.2l0,0L92.5,6.4z"/>
	<path fill="#A9AAAA" d="M25.3,80.7l0.9,6.5c0,2.2,1.9,4,4.1,4h18.6h18.6c2.3,0,4.1-1.8,4.1-4l7.2-54.8h-5.1L25.3,80.7z"/>
</g>
</svg>
